svg/editor/numbers_09_sort_descending_line.svg

<?xml version="1.0" encoding="UTF-8"?>
<svg width="24px" height="24px" viewBox="0 0 24 24" version="1.1" xmlns="http://www.w3.org/2000/svg" xmlns:xlink="http://www.w3.org/1999/xlink">
    <title>numbers_09_sort_descending_up_line</title>
    <g id="Icon" stroke="none" stroke-width="1" fill="none" fill-rule="evenodd">
        <g id="Editor" transform="translate(-192.000000, -288.000000)">
            <g id="numbers_09_sort_descending_up_line" transform="translate(192.000000, 288.000000)">
                <path d="M24,0 L24,24 L0,24 L0,0 L24,0 Z M12.5935,23.2578 L12.5819,23.2595 L12.5109,23.295 L12.4919,23.2987 L12.4767,23.295 L12.4057,23.2595 C12.3958,23.2564 12.387,23.259 12.3821,23.2649 L12.378,23.2758 L12.3609,23.7031 L12.3659,23.7235 L12.3769,23.7357 L12.4805,23.8097 L12.4953,23.8136 L12.5071,23.8097 L12.6107,23.7357 L12.6233,23.7197 L12.6267,23.7031 L12.6096,23.2758 C12.6076,23.2657 12.601,23.2593 12.5935,23.2578 Z M12.8584,23.1453 L12.8445,23.1473 L12.6598,23.2397 L12.6499,23.2499 L12.6472,23.2611 L12.6651,23.6906 L12.6699,23.7034 L12.6784,23.7105 L12.8793,23.8032 C12.8914,23.8069 12.9022,23.803 12.9078,23.7952 L12.9118,23.7812 L12.8777,23.1665 C12.8753,23.1546 12.8674,23.147 12.8584,23.1453 Z M12.143,23.1473 C12.1332,23.1424 12.1222,23.1453 12.1156,23.1526 L12.1099,23.1665 L12.0758,23.7812 C12.0751,23.7927 12.0828,23.8019 12.0926,23.8046 L12.1083,23.8032 L12.3092,23.7105 L12.3186,23.7024 L12.3225,23.6906 L12.3404,23.2611 L12.3372,23.2485 L12.3278,23.2397 L12.143,23.1473 Z" id="MingCute" fill-rule="nonzero"></path>
                <path d="M5,6 C5,4.34315 6.34315,3 8,3 C9.65685,3 11,4.34315 11,6 L11,8 C11,9.65685 9.65685,11 8,11 C6.34315,11 5,9.65685 5,8 L5,6 Z M8,5 C7.44772,5 7,5.44772 7,6 L7,8 C7,8.55228 7.44772,9 8,9 C8.55228,9 9,8.55228 9,8 L9,6 C9,5.44772 8.55228,5 8,5 Z M17.7072,4.29289 C17.3166,3.90237 16.6835,3.90237 16.293,4.29289 L13.4645,7.12132 C13.074,7.51184 13.074,8.14501 13.4645,8.53553 C13.855,8.92606 14.4882,8.92606 14.8787,8.53553 L16.0001,7.41421 L16.0001,20 C16.0001,20.5523 16.4478,21 17.0001,21 C17.5523,21 18.0001,20.5523 18.0001,20 L18.0001,7.41422 L19.1214,8.53553 C19.5119,8.92606 20.1451,8.92606 20.5356,8.53553 C20.9261,8.14501 20.9261,7.51184 20.5356,7.12132 L17.7072,4.29289 Z M5,15 C5,13.3431 6.34315,12 8,12 C9.59767679,12 10.9036606,13.2488774 10.9949073,14.8237227 L11,15.01 C11,15.4177 10.961,15.8088 10.8925,16.181 C10.6288,17.6137 9.92878,18.7611 9.32239,19.5328 C9.01633,19.9223 8.72545,20.2272 8.50824,20.4371 C8.38424,20.557 8.25768,20.6748 8.12278,20.7824 C7.69068,21.1264 7.06156,21.0549 6.71761,20.6228 C6.40043154,20.2243077 6.43621497,19.6585538 6.78255076,19.3031501 L7.11827,18.9991 L7.11827,18.9991 L7.34241608,18.7713784 C7.4663768,18.639292 7.60577,18.4804 7.7498,18.2971 C7.8235,18.2033 7.89762,18.1042 7.971,17.9999 C6.3275,17.9843 5,16.6472 5,15 Z M8,14 C7.44772,14 7,14.4477 7,15 C7,15.5523 7.44772,16 8,16 C8.55228,16 9,15.5523 9,15 C9,14.4477 8.55228,14 8,14 Z" id="形状" fill="#09244B"></path>
            </g>
        </g>
    </g>
</svg>

<svg xmlns="http://www.w3.org/2000/svg" width="24" height="24"><g fill="none" fill-rule="evenodd"><path d="M24 0v24H0V0h24ZM12.594 23.258l-.012.002-.071.035-.02.004-.014-.004-.071-.036c-.01-.003-.019 0-.024.006l-.004.01-.017.428.005.02.01.013.104.074.015.004.012-.004.104-.074.012-.016.004-.017-.017-.427c-.002-.01-.009-.017-.016-.018Zm.264-.113-.014.002-.184.093-.01.01-.003.011.018.43.005.012.008.008.201.092c.012.004.023 0 .029-.008l.004-.014-.034-.614c-.003-.012-.01-.02-.02-.022Zm-.715.002a.023.023 0 0 0-.027.006l-.006.014-.034.614c0 .012.007.02.017.024l.015-.002.201-.093.01-.008.003-.011.018-.43-.003-.012-.01-.01-.184-.092Z"/><path fill="#09244B" d="M5 6a3 3 0 0 1 6 0v2a3 3 0 0 1-6 0V6Zm3-1a1 1 0 0 0-1 1v2a1 1 0 0 0 2 0V6a1 1 0 0 0-1-1Zm9.707-.707a1 1 0 0 0-1.414 0L13.465 7.12a1 1 0 0 0 1.414 1.415L16 7.414V20a1 1 0 1 0 2 0V7.414l1.121 1.122a1 1 0 1 0 1.415-1.415l-2.829-2.828ZM5 15a3 3 0 0 1 5.995-.176l.005.186c0 .408-.039.799-.107 1.171-.264 1.433-.964 2.58-1.57 3.352-.307.39-.598.694-.815.904-.124.12-.25.238-.385.345a1 1 0 0 1-1.34-1.479L7.118 19l.224-.228A7.156 7.156 0 0 0 7.971 18 3 3 0 0 1 5 15Zm3-1a1 1 0 1 0 0 2 1 1 0 0 0 0-2Z"/></g></svg>
